icon-themes/breeze_svg/cmd/sc_morecontrols.svg

<svg viewBox="0 0 16 16" xmlns="http://www.w3.org/2000/svg"><path d="m3 2v12h5v-1h-4v-8h8v3h1v-6z" fill="#4d4d4d"/><path d="m11 9v2h-2v1h2v2h1v-2h2v-1h-2v-2z" fill="#1d99f3"/></svg>

<svg xmlns="http://www.w3.org/2000/svg" viewBox="0 0 16 16">
 <path 
     style="fill:#4d4d4d" 
     d="M 3 2 L 3 14 L 8 14 L 8 13 L 4 13 L 4 5 L 12 5 L 12 8 L 13 8 L 13 2 L 3 2 z "
     />
 <path 
     style="fill:#1d99f3" 
     d="M 11 9 L 11 11 L 9 11 L 9 12 L 11 12 L 11 14 L 12 14 L 12 12 L 14 12 L 14 11 L 12 11 L 12 9 L 11 9 z "
     />
 </svg>
